assets/images/modal-close.svg

<svg fill="none" height="48" viewBox="0 0 48 48" width="48" xmlns="http://www.w3.org/2000/svg" xmlns:xlink="http://www.w3.org/1999/xlink"><filter id="a" color-interpolation-filters="sRGB" filterUnits="userSpaceOnUse" height="48" width="48" x="0" y="0"><feFlood flood-opacity="0" result="BackgroundImageFix"/><feColorMatrix in="SourceAlpha" result="hardAlpha" type="matrix" values="0 0 0 0 0 0 0 0 0 0 0 0 0 0 0 0 0 0 127 0"/><feOffset dy="4"/><feGaussianBlur stdDeviation="2"/><feComposite in2="hardAlpha" operator="out"/><feColorMatrix type="matrix" values="0 0 0 0 0 0 0 0 0 0 0 0 0 0 0 0 0 0 0.08 0"/><feBlend in2="BackgroundImageFix" mode="normal" result="effect1_dropShadow_1201_609"/><feBlend in="SourceGraphic" in2="effect1_dropShadow_1201_609" mode="normal" result="shape"/></filter><mask id="b" height="24" maskUnits="userSpaceOnUse" width="24" x="12" y="8"><path d="m12 8h24v24h-24z" fill="#1c1b1f"/></mask><g filter="url(#a)"><circle cx="24" cy="20" fill="#fff" r="20"/></g><g mask="url(#b)"><path d="m23.9998 21.4-4.9 4.9c-.1833.1833-.4167.275-.7.275s-.5167-.0917-.7-.275-.275-.4167-.275-.7.0917-.5167.275-.7l4.9-4.9-4.9-4.9c-.1833-.1833-.275-.4167-.275-.7s.0917-.5167.275-.7.4167-.275.7-.275.5167.0917.7.275l4.9 4.9 4.9-4.9c.1833-.1833.4167-.275.7-.275s.5167.0917.7.275.275.4167.275.7-.0917.5167-.275.7l-4.9 4.9 4.9 4.9c.1833.1833.275.4167.275.7s-.0917.5167-.275.7-.4167.275-.7.275-.5167-.0917-.7-.275z" fill="#1c1b1f"/></g></svg>

<svg width="48" height="48" viewBox="0 0 48 48" fill="none" xmlns="http://www.w3.org/2000/svg">
<g filter="url(#filter0_d_1201_609)">
<circle cx="24" cy="20" r="20" fill="white"/>
</g>
<mask id="mask0_1201_609" style="mask-type:alpha" maskUnits="userSpaceOnUse" x="12" y="8" width="24" height="24">
<rect x="12" y="8" width="24" height="24" fill="#1C1B1F"/>
</mask>
<g mask="url(#mask0_1201_609)">
<path d="M23.9998 21.4L19.0998 26.3C18.9165 26.4833 18.6831 26.575 18.3998 26.575C18.1165 26.575 17.8831 26.4833 17.6998 26.3C17.5165 26.1167 17.4248 25.8833 17.4248 25.6C17.4248 25.3167 17.5165 25.0833 17.6998 24.9L22.5998 20L17.6998 15.1C17.5165 14.9167 17.4248 14.6833 17.4248 14.4C17.4248 14.1167 17.5165 13.8833 17.6998 13.7C17.8831 13.5167 18.1165 13.425 18.3998 13.425C18.6831 13.425 18.9165 13.5167 19.0998 13.7L23.9998 18.6L28.8998 13.7C29.0831 13.5167 29.3165 13.425 29.5998 13.425C29.8831 13.425 30.1165 13.5167 30.2998 13.7C30.4831 13.8833 30.5748 14.1167 30.5748 14.4C30.5748 14.6833 30.4831 14.9167 30.2998 15.1L25.3998 20L30.2998 24.9C30.4831 25.0833 30.5748 25.3167 30.5748 25.6C30.5748 25.8833 30.4831 26.1167 30.2998 26.3C30.1165 26.4833 29.8831 26.575 29.5998 26.575C29.3165 26.575 29.0831 26.4833 28.8998 26.3L23.9998 21.4Z" fill="#1C1B1F"/>
</g>
<defs>
<filter id="filter0_d_1201_609" x="0" y="0" width="48" height="48" filterUnits="userSpaceOnUse" color-interpolation-filters="sRGB">
<feFlood flood-opacity="0" result="BackgroundImageFix"/>
<feColorMatrix in="SourceAlpha" type="matrix" values="0 0 0 0 0 0 0 0 0 0 0 0 0 0 0 0 0 0 127 0" result="hardAlpha"/>
<feOffset dy="4"/>
<feGaussianBlur stdDeviation="2"/>
<feComposite in2="hardAlpha" operator="out"/>
<feColorMatrix type="matrix" values="0 0 0 0 0 0 0 0 0 0 0 0 0 0 0 0 0 0 0.08 0"/>
<feBlend mode="normal" in2="BackgroundImageFix" result="effect1_dropShadow_1201_609"/>
<feBlend mode="normal" in="SourceGraphic" in2="effect1_dropShadow_1201_609" result="shape"/>
</filter>
</defs>
</svg>
